korla/apps/scalable/com.github.rkoesters.xkcd-gtk.svg

<svg width="48" height="48" xmlns="http://www.w3.org/2000/svg">
 <g transform="translate(0 -1004.3622)">
  <circle cx="24" cy="1029.362" r="20" opacity=".2"/>
  <circle cx="24" cy="1028.362" r="20" fill="#e4e4e4"/>
  <path transform="translate(0 1004.3622)" d="m43.443359 19.412109-37.9023434 12.240235a20.000004 20.000004 0 0 0 .4101563.917968l37.7109371-12.177734a20.000004 20.000004 0 0 0 -.21875-.980469z" fill="#3f3f3f"/>
  <path d="m31.600512 1021.3622-19.140727 6.2278.100503.3065 1.820773 5.5981 19.140725-6.2262z" fill="#3f3f3f"/>
  <path transform="translate(0 1004.3622)" d="m24 4a20.000004 20.000004 0 0 0 -20 20 20.000004 20.000004 0 0 0 .0214844.582031 20.000004 20.000004 0 0 1 19.9785156-19.582031 20.000004 20.000004 0 0 1 19.978516 19.417969 20.000004 20.000004 0 0 0 .021484-.417969 20.000004 20.000004 0 0 0 -20-20z" fill="#fff" opacity=".2"/>
 </g>
</svg>

<svg xmlns="http://www.w3.org/2000/svg" width="48" height="48" version="1.1">
 <g transform="translate(0,-1004.3622)">
  <circle style="opacity:0.2" cx="24" cy="1029.362" r="20"/>
  <circle style="fill:#e4e4e4" cx="24" cy="1028.362" r="20"/>
  <path style="fill:#3f3f3f" transform="translate(0,1004.3622)" d="M 43.443359 19.412109 L 5.5410156 31.652344 A 20.000004 20.000004 0 0 0 5.9511719 32.570312 L 43.662109 20.392578 A 20.000004 20.000004 0 0 0 43.443359 19.412109 z"/>
  <path style="fill:#3f3f3f" d="m 31.600512,1021.3622 -19.140727,6.2278 0.100503,0.3065 1.820773,5.5981 19.140725,-6.2262 -1.921274,-5.9062 z"/>
  <path style="fill:#ffffff;opacity:0.2" transform="translate(0,1004.3622)" d="M 24 4 A 20.000004 20.000004 0 0 0 4 24 A 20.000004 20.000004 0 0 0 4.0214844 24.582031 A 20.000004 20.000004 0 0 1 24 5 A 20.000004 20.000004 0 0 1 43.978516 24.417969 A 20.000004 20.000004 0 0 0 44 24 A 20.000004 20.000004 0 0 0 24 4 z"/>
 </g>
</svg>
